svg/fluentui-system-icons/ic_fluent_mail_alert_16_regular.svg

<svg width="16" height="16" viewBox="0 0 16 16" fill="none" xmlns="http://www.w3.org/2000/svg">
<path d="M7.49741 4C7.49741 2.34326 8.84067 1 10.4974 1C12.1541 1 13.4974 2.34326 13.4974 4V6L14.8172 7.11865C15.1727 7.41968 14.9598 8 14.494 8H6.50083C6.0355 8 5.82261 7.41968 6.17759 7.11865L7.49741 6.00024V4ZM10.4974 10C9.84458 10 9.28891 9.58252 9.08286 9H11.912C11.7064 9.58252 11.1507 10 10.4974 10ZM3 5H6.49994V5.53685L5.9534 6H3C2.44772 6 2 6.44772 2 7V7.73976L7.0001 10.4321L8.31893 9.72198C8.4883 10.0237 8.71851 10.2869 8.99307 10.4947L7.23715 11.4402C7.08916 11.5199 6.91104 11.5199 6.76305 11.4402L2 8.87552V13C2 13.5523 2.44772 14 3 14H11C11.5523 14 12 13.5523 12 13V10.5002C12.3905 10.2068 12.692 9.80185 12.8576 9.33325L12.9754 9H13V13C13 14.1046 12.1046 15 11 15H3C1.89543 15 1 14.1046 1 13V7C1 5.89543 1.89543 5 3 5Z" fill="#212121"/>
</svg>

<svg xmlns="http://www.w3.org/2000/svg" width="16" height="16"><path d="M7.497 4a3 3 0 0 1 6 0v2l1.32 1.119a.5.5 0 0 1-.323.881H6.501a.5.5 0 0 1-.323-.881L7.498 6V4Zm3 6a1.501 1.501 0 0 1-1.414-1h2.829a1.5 1.5 0 0 1-1.415 1ZM3 5h3.5v.537L5.953 6H3a1 1 0 0 0-1 1v.74l5 2.692 1.319-.71c.17.302.4.565.674.773l-1.756.945a.5.5 0 0 1-.474 0L2 8.876V13a1 1 0 0 0 1 1h8a1 1 0 0 0 1-1v-2.5a2.51 2.51 0 0 0 .858-1.167L12.975 9H13v4a2 2 0 0 1-2 2H3a2 2 0 0 1-2-2V7a2 2 0 0 1 2-2Z"/></svg>
